X:48
T:La Bell. TJD.48
T:Davy Davy Nicknack,aka. TJD.48
M:2/4
L:1/16
Q:1/4=120
S:T.J.Dixon MS2, Lincolnshire, early 19thC
R:country dance
A:Lincolnshire, Holton le Moor
Z:vmp.R.Greig2010
K:G
GFGA B2B2|GFGA B2B2|dcBc A2A2|dcBc A2A2|!
GFGA B2B2|GFGA B2B2|dcBc A2B2|G4G4:|!
|:dcBc B2B2|g4d4|dcBc A2A2|dcBc A2A2|!
dcBc B2d2|g4d4|dcBc A2B2|G4G4:|]

